icon-themes/breeze_svg/cmd/sc_borderdialog.svg

<svg viewBox="0 0 16 16" xmlns="http://www.w3.org/2000/svg"><path d="m2 2v2h11v-2zm0 4v2h2v-2zm3 0v2h2v-2zm3 0v2h2v-2zm3 0v2h2v-2zm-9 4v1h11v-1zm0 3v1h1v-1z" fill="#4d4d4d"/><path d="m6 12c-.5522847 0-1 .447715-1 1s.4477153 1 1 1 1-.447715 1-1-.4477153-1-1-1zm3 0c-.5522847 0-1 .447715-1 1s.4477153 1 1 1 1-.447715 1-1-.4477153-1-1-1zm3 0c-.552285 0-1 .447715-1 1s.447715 1 1 1 1-.447715 1-1-.447715-1-1-1z" fill="#f47750"/></svg>

<svg xmlns="http://www.w3.org/2000/svg" viewBox="0 0 16 16">
 <path 
     style="fill:#4d4d4d" 
     d="M 2 2 L 2 4 L 13 4 L 13 2 L 2 2 z M 2 6 L 2 8 L 4 8 L 4 6 L 2 6 z M 5 6 L 5 8 L 7 8 L 7 6 L 5 6 z M 8 6 L 8 8 L 10 8 L 10 6 L 8 6 z M 11 6 L 11 8 L 13 8 L 13 6 L 11 6 z M 2 10 L 2 11 L 13 11 L 13 10 L 2 10 z M 2 13 L 2 14 L 3 14 L 3 13 L 2 13 z "
     />
 <path 
     style="fill:#f47750" 
     d="M 6 12 C 5.4477153 12 5 12.447715 5 13 C 5 13.552285 5.4477153 14 6 14 C 6.5522847 14 7 13.552285 7 13 C 7 12.447715 6.5522847 12 6 12 z M 9 12 C 8.4477153 12 8 12.447715 8 13 C 8 13.552285 8.4477153 14 9 14 C 9.5522847 14 10 13.552285 10 13 C 10 12.447715 9.5522847 12 9 12 z M 12 12 C 11.447715 12 11 12.447715 11 13 C 11 13.552285 11.447715 14 12 14 C 12.552285 14 13 13.552285 13 13 C 13 12.447715 12.552285 12 12 12 z "
     />
 </svg>
